icons/evolvere-blue-folders-flat-vivid-dark-fallback/actions/64/call-start.svg

<?xml version="1.0" encoding="UTF-8" standalone="no"?>
<!-- Created with Inkscape (http://www.inkscape.org/) -->

<svg
   xmlns:dc="http://purl.org/dc/elements/1.1/"
   xmlns:cc="http://creativecommons.org/ns#"
   xmlns:rdf="http://www.w3.org/1999/02/22-rdf-syntax-ns#"
   xmlns:svg="http://www.w3.org/2000/svg"
   xmlns="http://www.w3.org/2000/svg"
   xmlns:sodipodi="http://sodipodi.sourceforge.net/DTD/sodipodi-0.dtd"
   xmlns:inkscape="http://www.inkscape.org/namespaces/inkscape"
   width="64"
   height="64"
   id="svg13094"
   version="1.1"
   inkscape:version="0.91+devel r"
   sodipodi:docname="call-start.svg">
  <sodipodi:namedview
     id="base"
     pagecolor="#ffffff"
     bordercolor="#666666"
     borderopacity="1.0"
     inkscape:pageopacity="0"
     inkscape:pageshadow="2"
     inkscape:zoom="11.313709"
     inkscape:cx="38.000502"
     inkscape:cy="31.468544"
     inkscape:document-units="px"
     inkscape:current-layer="svg13094"
     showgrid="false"
     inkscape:snap-bbox="true"
     inkscape:bbox-paths="true"
     inkscape:bbox-nodes="true"
     inkscape:snap-bbox-edge-midpoints="true"
     inkscape:snap-bbox-midpoints="true"
     inkscape:object-paths="true"
     inkscape:snap-intersection-paths="true"
     inkscape:object-nodes="true"
     inkscape:snap-smooth-nodes="true"
     inkscape:snap-midpoints="true"
     inkscape:snap-object-midpoints="true"
     inkscape:snap-center="true"
     showguides="true"
     inkscape:guide-bbox="true"
     inkscape:window-width="1920"
     inkscape:window-height="1023"
     inkscape:window-x="-10"
     inkscape:window-y="35"
     inkscape:window-maximized="1"
     inkscape:snap-global="true"
     fit-margin-top="0"
     fit-margin-left="0"
     fit-margin-right="0"
     fit-margin-bottom="0"
     showborder="true"
     inkscape:showpageshadow="false"
     inkscape:snap-page="true">
    <inkscape:grid
       type="xygrid"
       id="grid3075"
       empspacing="5"
       visible="true"
       enabled="true"
       snapvisiblegridlinesonly="true"
       originx="1.6362304e-08px"
       originy="18px" />
  </sodipodi:namedview>
  <defs
     id="defs13096" />
  <metadata
     id="metadata13099">
    <rdf:RDF>
      <cc:Work
         rdf:about="">
        <dc:format>image/svg+xml</dc:format>
        <dc:type
           rdf:resource="http://purl.org/dc/dcmitype/StillImage" />
        <dc:title></dc:title>
      </cc:Work>
    </rdf:RDF>
  </metadata>
  <path
     inkscape:connector-curvature="0"
     style="color:#000000;fill:#61b23d;fill-opacity:1;fill-rule:nonzero;stroke:none;stroke-width:2.28571415;marker:none;visibility:visible;display:inline;overflow:visible;enable-background:accumulate"
     d="m 0,4 0,30 0,28 2,2 30,0 30,0 2,-2 0,-28 0,-30 -32,0 z"
     id="path4095"
     sodipodi:nodetypes="ccccccccccc" />
  <path
     inkscape:connector-curvature="0"
     style="color:#000000;fill:#7fee3e;fill-opacity:1;fill-rule:nonzero;stroke:none;stroke-width:2.28571415;marker:none;visibility:visible;display:inline;overflow:visible;enable-background:accumulate"
     d="M 2,0 0,1 0,4 32,4 64,4 64,1 62,0 32,0 z"
     id="path4090"
     sodipodi:nodetypes="ccccccccc" />
  <path
     style="fill:#8fff56;fill-opacity:0.70572454;fill-rule:nonzero"
     d="M 1.6362304e-8,3 0,6 2,4 Z"
     id="path4298"
     inkscape:connector-curvature="0"
     sodipodi:nodetypes="cccc" />
  <g
     id="g3043"
     inkscape:export-filename="folder.png"
     inkscape:export-xdpi="90"
     inkscape:export-ydpi="90"
     transform="translate(-0.62500009,0.082283)" />
  <g
     id="scalable"
     transform="matrix(1.0385892,0,0,1.0385892,1214.7222,1878.8121)"
     inkscape:label="#g3701"
     style="fill:#ffffff" />
  <path
     d="M 64,6 62,4 64,3 z"
     id="path3028"
     style="fill:#013b00;fill-opacity:0.13759862"
     inkscape:connector-curvature="0"
     sodipodi:nodetypes="cccc" />
  <path
     inkscape:connector-curvature="0"
     id="path4174"
     d="m 28.260495,13.114673 -3.217481,0.282814 c -0.08913,0.01015 -0.173363,0.03045 -0.247467,0.07207 -0.222393,0.118262 -0.36582,0.357324 -0.341802,0.624809 l 0.954651,10.653913 c 0.03177,0.35641 0.350624,0.609683 0.707135,0.577504 l 3.217411,-0.282814 c 0.3565,-0.03147 0.60955,-0.350623 0.577492,-0.707134 l -0.954651,-10.64244 c -0.03177,-0.356308 -0.338858,-0.609378 -0.695288,-0.577402 z m -4.667077,0.848542 c -0.919182,0.06091 -1.910633,0.314383 -2.79315,0.824889 -0.749383,0.433253 -1.419476,1.045981 -1.897497,1.874017 -1.95941,3.393757 -2.752719,13.740699 2.922832,23.570942 5.675489,9.830243 15.032188,14.307543 18.951018,14.307543 2.082006,1.01e-4 3.730768,-1.293673 4.678821,-2.710581 -0.06456,-0.03147 -0.128108,-0.06395 -0.188548,-0.106182 l -8.685856,-6.11662 C 34.783459,46.796845 29.178653,45.016624 25.266959,38.241291 21.355266,31.46616 22.619145,25.720872 24.548081,24.758738 L 23.593418,14.175376 c -0.0071,-0.07309 -0.0061,-0.141001 0,-0.212161 z m 15.67468,27.083063 c -0.123906,0 -0.246817,0.03857 -0.353558,0.105978 l 0,-0.01117 c -0.07136,0.04467 -0.137061,0.103644 -0.188549,0.176834 l -1.850385,2.651805 c -0.205948,0.292659 -0.139397,0.689572 0.153253,0.895541 l 8.744814,6.152048 c 0.29266,0.205968 0.689776,0.127804 0.895724,-0.164855 l 1.850324,-2.628254 c 0.205938,-0.292761 0.139529,-0.701551 -0.153202,-0.907418 l -8.733038,-6.15215 c -0.109814,-0.07715 -0.241467,-0.115318 -0.365383,-0.117856 z"
     style="color:#000000;fill:#ffffff;fill-opacity:0.86583185;fill-rule:nonzero;stroke:none;stroke-width:1.20000005;marker:none;visibility:visible;display:inline;overflow:visible;enable-background:accumulate"
     inkscape:export-filename="../imagens/simbolo-telefone-rodape.png"
     inkscape:export-xdpi="90"
     inkscape:export-ydpi="90"
     sodipodi:nodetypes="ccccccccccccccsccccccccccccccccccccc" />
  <path
     style="color:#000000;fill:#013b00;fill-opacity:0.13759861;fill-rule:nonzero;stroke:none;stroke-width:1;marker:none;visibility:visible;display:inline;overflow:visible;enable-background:accumulate;opacity:1;stroke-linecap:butt;stroke-linejoin:miter;stroke-miterlimit:4;stroke-dasharray:none;stroke-dashoffset:0;stroke-opacity:1"
     d="M 29.25 14.125 L 29 14.15625 L 29.90625 24.34375 C 29.938308 24.700261 29.70025 24.99978 29.34375 25.03125 L 26.375 25.28125 L 26.40625 25.75 C 26.43802 26.10641 26.768489 26.344679 27.125 26.3125 L 30.34375 26.03125 C 30.70025 25.99978 30.938308 25.700261 30.90625 25.34375 L 29.96875 14.6875 C 29.93698 14.331192 29.60643 14.093024 29.25 14.125 z M 24.53125 14.96875 C 24.250849 14.989916 23.975413 15.03491 23.6875 15.09375 L 24.5625 24.75 C 22.633564 25.712134 21.369557 31.474869 25.28125 38.25 C 26.460433 40.29243 27.757526 41.872428 29.09375 43.0625 C 28.106813 42.021845 27.159707 40.77155 26.28125 39.25 C 22.369557 32.474869 23.633564 26.712134 25.5625 25.75 L 25.5 25.03125 C 25.447039 24.948725 25.415625 24.85517 25.40625 24.75 L 24.53125 14.96875 z M 37.75 45.375 C 37.761298 45.561809 37.86444 45.757598 38.03125 45.875 L 46.78125 52.03125 C 47.07391 52.237218 47.450302 52.136409 47.65625 51.84375 L 49.53125 49.21875 C 49.737188 48.925989 49.667731 48.518367 49.375 48.3125 L 48.625 47.78125 C 48.64341 47.93662 48.627783 48.081518 48.53125 48.21875 L 46.65625 50.84375 C 46.450302 51.136409 46.07391 51.237218 45.78125 51.03125 L 37.75 45.375 z M 27.9375 47.90625 C 33.075827 53.101442 38.898223 55.53125 41.78125 55.53125 C 43.863256 55.531351 45.520697 54.260658 46.46875 52.84375 C 46.40419 52.81228 46.34169 52.760982 46.28125 52.71875 L 45.3125 52.03125 C 44.346693 53.367453 42.764667 54.531346 40.78125 54.53125 C 38.087054 54.53125 32.808926 52.423239 27.9375 47.90625 z "
     id="path4169" />
</svg>

<svg xmlns="http://www.w3.org/2000/svg" viewBox="0 0 64 64"><g color="#000"><path d="m0 4v30 28l2 2h30 30l2-2v-28-30h-32z" fill="#61b23d"/><path d="m2 0l-2 1v3h32 32v-3l-2-1h-30z" fill="#7fee3e"/></g><path d="m0 3v3l2-2" fill="#8fff56" fill-opacity=".706"/><path d="m64 6l-2-2 2-1z" fill="#013b00" fill-opacity=".138"/><g color="#000"><path d="m28.26 13.11l-3.217.283c-.089.01-.173.03-.247.072-.222.118-.366.357-.342.625l.955 10.654c.032.356.351.61.707.578l3.217-.283c.357-.031.61-.351.577-.707l-.955-10.642c-.032-.356-.339-.609-.695-.577zm-4.667.849c-.919.061-1.911.314-2.793.825-.749.433-1.419 1.046-1.897 1.874-1.959 3.394-2.753 13.741 2.923 23.571 5.675 9.83 15.03 14.308 18.951 14.308 2.082 0 3.731-1.294 4.679-2.711-.065-.031-.128-.064-.189-.106l-8.686-6.117c-1.798 1.19-7.402-.591-11.314-7.366-3.912-6.775-2.648-12.52-.719-13.483l-.955-10.583c-.007-.073-.006-.141 0-.212m15.675 27.08c-.124 0-.247.039-.354.106v-.011c-.071.045-.137.104-.189.177l-1.85 2.652c-.206.293-.139.69.153.896l8.745 6.152c.293.206.69.128.896-.165l1.85-2.628c.206-.293.14-.702-.153-.907l-8.733-6.152c-.11-.077-.241-.115-.365-.118" fill="#fff" fill-opacity=".866"/><path d="m29.25 14.13l-.25.031.906 10.188c.032.357-.206.656-.563.688l-2.969.25.031.469c.032.356.362.595.719.563l3.219-.281c.357-.031.595-.331.563-.688l-.938-10.656c-.032-.356-.362-.594-.719-.563m-4.719.844c-.28.021-.556.066-.844.125l.875 9.656c-1.929.962-3.193 6.725.719 13.5 1.179 2.042 2.476 3.622 3.813 4.813-.987-1.041-1.934-2.291-2.813-3.813-3.912-6.775-2.648-12.538-.719-13.5l-.063-.719c-.053-.083-.084-.176-.094-.281l-.875-9.781m13.219 30.406c.011.187.114.383.281.5l8.75 6.156c.293.206.669.105.875-.188l1.875-2.625c.206-.293.136-.7-.156-.906l-.75-.531c.018.155.003.3-.094.438l-1.875 2.625c-.206.293-.582.393-.875.188l-8.03-5.656m-9.813 2.531c5.138 5.195 10.961 7.625 13.844 7.625 2.082 0 3.739-1.271 4.688-2.688-.065-.031-.127-.083-.188-.125l-.969-.688c-.966 1.336-2.548 2.5-4.531 2.5-2.694 0-7.972-2.108-12.844-6.625" fill-opacity=".138" fill="#013b00"/></g></svg>
